file/diageo.svg

<svg clip-rule="evenodd" fill-rule="evenodd" stroke-linejoin="round" stroke-miterlimit="1.41421" viewBox="0 0 560 400" xmlns="http://www.w3.org/2000/svg"><path d="m48.558 21.013c.101-.201.268-.535.334-.701l4.073-9.883 4.006 9.982c.067.167.2.434.301.667l-.5.101c-1.136.301-2.404.5-3.706.5-1.303 0-2.504-.166-3.773-.5-.234-.066-.568-.166-.735-.166m-41.43-15.057c4.54 0 7.745.935 9.748 2.704 2.404 2.104 3.606 4.874 3.606 8.346 0 3.307-1.168 6.043-3.473 8.18-2.003 1.903-5.274 2.904-9.882 2.904h-1.468v-22.134zm140.218 2.837c2.271 2.203 3.372 4.974 3.372 8.212 0 3.205-1.135 5.943-3.372 8.213-2.236 2.237-4.94 3.372-8.112 3.372-6.376 0-11.451-5.241-11.451-11.585 0-3.204 1.136-5.975 3.373-8.246 2.203-2.236 4.939-3.338 8.078-3.338s5.842 1.135 8.112 3.372zm-53.784 1.937 4.039-3.473c-3.471-4.64-8.112-6.943-13.587-6.943-9.314 0-16.827 7.444-16.827 16.759 0 9.114 7.479 16.626 16.594 16.626 2.303 0 4.507-.501 6.643-1.469 2.07-.936 3.873-2.237 5.342-3.939 1.402-1.568 2.304-3.372 2.838-5.342.435-1.637.701-3.639.568-6.043l-.068-.969h-14.555v5.108h8.946c-.233 2.003-1.269 3.739-3.071 5.175-1.969 1.603-4.206 2.37-6.71 2.37-2.905 0-5.509-1.202-7.913-3.571-2.169-2.203-3.271-4.842-3.271-7.912 0-3.239 1.135-6.043 3.472-8.381 2.203-2.236 4.874-3.305 7.946-3.305 3.939 0 7.044 1.803 9.614 5.309zm-34.219 15.391 2.972 7.077h5.876l-13.79-32.45h-2.67l-14.156 32.45h5.843l3.105-7.212c.065-.199.1-.334.133-.467.133.066.334.133.566.233 1.737.668 3.807 1.035 5.844 1.035 2.003 0 3.973-.399 5.141-.802.602-.199.802-.299.968-.4.034.134.133.436.168.536zm-52.382 7.077c5.942 0 10.516-1.335 13.588-4.106 3.505-3.138 5.275-7.144 5.275-12.052 0-5.108-1.803-9.214-5.409-12.286-3.038-2.604-7.545-3.907-13.387-3.907h-6.911v32.351zm28.51-32.351h-5.308v32.351h5.308zm72.481 17.26h11.316v-5.073h-11.316v-7.078h12.319v-5.109h-17.629v32.351h17.661v-5.108h-12.352v-9.983zm19.429-12.887c-3.304 3.239-4.939 7.213-4.939 11.819 0 9.313 7.511 16.659 16.792 16.659 9.314 0 16.793-7.311 16.793-16.659 0-4.574-1.669-8.479-4.908-11.785-3.273-3.304-7.245-4.94-11.886-4.94-4.606 0-8.579 1.636-11.852 4.906z" fill="#c80651" fill-rule="nonzero" transform="matrix(2.69582 0 0 2.69582 69.5318 154.154)"/></svg>

<?xml version="1.0" encoding="UTF-8" standalone="no"?>
<!DOCTYPE svg PUBLIC "-//W3C//DTD SVG 1.1//EN" "http://www.w3.org/Graphics/SVG/1.1/DTD/svg11.dtd">
<svg width="100%" height="100%" viewBox="0 0 560 400" version="1.1" xmlns="http://www.w3.org/2000/svg" xmlns:xlink="http://www.w3.org/1999/xlink" xml:space="preserve" xmlns:serif="http://www.serif.com/" style="fill-rule:evenodd;clip-rule:evenodd;stroke-linejoin:round;stroke-miterlimit:1.41421;">
    <g transform="matrix(2.69582,0,0,2.69582,69.5318,154.154)">
        <path d="M48.558,21.013C48.659,20.812 48.826,20.478 48.892,20.312L52.965,10.429L56.971,20.411C57.038,20.578 57.171,20.845 57.272,21.078L56.772,21.179C55.636,21.48 54.368,21.679 53.066,21.679C51.763,21.679 50.562,21.513 49.293,21.179C49.059,21.113 48.725,21.013 48.558,21.013M7.128,5.956C11.668,5.956 14.873,6.891 16.876,8.66C19.28,10.764 20.482,13.534 20.482,17.006C20.482,20.313 19.314,23.049 17.009,25.186C15.006,27.089 11.735,28.09 7.127,28.09L5.659,28.09L5.659,5.956L7.128,5.956ZM147.346,8.793C149.617,10.996 150.718,13.767 150.718,17.005C150.718,20.21 149.583,22.948 147.346,25.218C145.11,27.455 142.406,28.59 139.234,28.59C132.858,28.59 127.783,23.349 127.783,17.005C127.783,13.801 128.919,11.03 131.156,8.759C133.359,6.523 136.095,5.421 139.234,5.421C142.373,5.421 145.076,6.556 147.346,8.793ZM93.562,10.73L97.601,7.257C94.13,2.617 89.489,0.314 84.014,0.314C74.7,0.314 67.187,7.758 67.187,17.073C67.187,26.187 74.666,33.699 83.781,33.699C86.084,33.699 88.288,33.198 90.424,32.23C92.494,31.294 94.297,29.993 95.766,28.291C97.168,26.723 98.07,24.919 98.604,22.949C99.039,21.312 99.305,19.31 99.172,16.906L99.104,15.937L84.549,15.937L84.549,21.045L93.495,21.045C93.262,23.048 92.226,24.784 90.424,26.22C88.455,27.823 86.218,28.59 83.714,28.59C80.809,28.59 78.205,27.388 75.801,25.019C73.632,22.816 72.53,20.177 72.53,17.107C72.53,13.868 73.665,11.064 76.002,8.726C78.205,6.49 80.876,5.421 83.948,5.421C87.887,5.421 90.992,7.224 93.562,10.73ZM59.343,26.121L62.315,33.198L68.191,33.198L54.401,0.748L51.731,0.748L37.575,33.198L43.418,33.198L46.523,25.986C46.588,25.787 46.623,25.652 46.656,25.519C46.789,25.585 46.99,25.652 47.222,25.752C48.959,26.42 51.029,26.787 53.066,26.787C55.069,26.787 57.039,26.388 58.207,25.985C58.809,25.786 59.009,25.686 59.175,25.585C59.209,25.719 59.308,26.021 59.343,26.121ZM6.961,33.198C12.903,33.198 17.477,31.863 20.549,29.092C24.054,25.954 25.824,21.948 25.824,17.04C25.824,11.932 24.021,7.826 20.415,4.754C17.377,2.15 12.87,0.847 7.028,0.847L0.117,0.847L0.117,33.198L6.961,33.198ZM35.471,0.847L30.163,0.847L30.163,33.198L35.471,33.198L35.471,0.847ZM107.952,18.107L119.268,18.107L119.268,13.034L107.952,13.034L107.952,5.956L120.271,5.956L120.271,0.847L102.642,0.847L102.642,33.198L120.303,33.198L120.303,28.09L107.951,28.09L107.951,18.107L107.952,18.107ZM127.381,5.22C124.077,8.459 122.442,12.433 122.442,17.039C122.442,26.352 129.953,33.698 139.234,33.698C148.548,33.698 156.027,26.387 156.027,17.039C156.027,12.465 154.358,8.56 151.119,5.254C147.846,1.95 143.874,0.314 139.233,0.314C134.627,0.314 130.654,1.95 127.381,5.22Z" style="fill:rgb(200,6,81);fill-rule:nonzero;"/>
    </g>
</svg>
